X:239
T: San hua
N: C0376
O: China, Hebei, Zhangjiakou, Nhe v. Shanxi)
S: IV, 63]
N: typisch fuer Nordchina
N: Vereinzelt Verzierungen, Glissandi.
R: Xiaodiao. Siji huahui]
M: 2/4
L: 1/16
K: F
c3df4 | e2d2c4 | f2edcdcA | G2AcG4
c3df4 | egedc4 | f2edcdcA | G2AcG4
cc2Ac4 | FGAcG4
cc2Ac4 | FGAcGGGG | F8
c3fd2c2 | A2A2A2A2
G3Ac4 | AcAGF4 | c2cAGAGD | C8
F2F2D2C2 | F2F2D2C2
G3Ac4 | AcAGF4 | c2cAGAGD | C8
D3FD3F | G2D2C4
D3FD3F | G2D2c4
G2c2AcAG | F4F2D2 | c2cAGAGD | C8

